dist/img/sprites/scale.svg

<svg width="71" height="71" viewBox="0 0 71 71" fill="none" xmlns="http://www.w3.org/2000/svg">
<g filter="url(#filter0_f_1910_13771)">
<path d="M53.2304 19.4448C53.2304 18.2918 52.7284 17.801 51.5533 17.7896C47.6628 17.7896 43.7609 17.7896 39.8704 17.7896C39.6422 17.7896 39.3912 17.7896 39.1859 17.858C38.547 18.0407 38.1134 18.68 38.1819 19.3078C38.2618 20.0612 38.798 20.5749 39.5167 20.5864C40.7033 20.6206 41.8898 20.6092 43.0764 20.6092H44.5481H47.64L47.2863 21.7051L47.138 21.8763C41.81 27.2074 36.482 32.5612 31.1425 37.8923C30.9029 38.132 30.5264 38.2804 30.1842 38.2804C28.0393 38.2576 25.8944 38.2348 23.7495 38.2005L21.5476 38.1777H20.6006V36.4882C20.6006 35.6206 20.6006 34.7644 20.6006 33.9197C20.6006 33.6001 20.5778 33.2233 20.4865 32.9494C20.2812 32.3672 19.6308 31.979 19.0148 32.0818C18.2846 32.2074 17.8168 32.7439 17.8054 33.4402C17.794 34.3649 17.794 35.301 17.8054 36.2599V38.1777H14.1089C13.4357 38.1777 12.7626 38.1777 12.0895 38.1777C11.1882 38.1777 10.2754 38.1777 9.36273 38.1777C6.9212 38.2005 5.5293 39.5932 5.5293 42.0019C5.5293 48.5886 5.5293 55.164 5.5293 61.7393C5.5293 64.148 6.9212 65.5179 9.3285 65.5293C15.8773 65.5293 22.4375 65.5293 28.9862 65.5293C31.462 65.5293 32.8311 64.148 32.8311 61.6366V54.6617C32.8311 54.4905 32.8425 54.3192 32.8539 54.1366L32.8995 53.2804H34.7478C35.6833 53.2804 36.6075 53.2804 37.5202 53.2804C38.3188 53.269 38.9463 52.6526 38.9349 51.8877C38.9349 51.1229 38.353 50.5407 37.5544 50.495C37.2349 50.4722 36.9269 50.4836 36.6074 50.4836H36.1967H32.8197V47.8352C32.8197 46.0772 32.8197 44.3649 32.8197 42.6526V42.5042C32.8197 42.0818 32.8197 41.6822 32.7512 41.3055C32.6485 40.6891 32.8082 40.2096 33.2532 39.7644C37.1094 35.9174 40.9657 32.059 44.8219 28.2119L48.758 24.2736C48.8607 24.1708 48.9748 24.0795 49.1117 23.9539L50.3781 22.8352V27.059C50.3781 28.4859 50.3781 29.9243 50.3781 31.3512C50.3781 32.1275 50.7546 32.6754 51.4049 32.8466C51.8385 32.9608 52.272 32.8923 52.6029 32.6297C52.968 32.3558 53.1733 31.8991 53.1733 31.374C53.1847 27.4128 53.1733 23.4402 53.1733 19.479L53.2304 19.4448ZM29.9902 62.6754H8.38155V41.0658H29.9902V62.6754Z" fill="#4B8125" fill-opacity="0.35"/>
<path d="M24.2975 8.34905C24.617 8.34905 24.9478 8.34905 25.2787 8.34905C26.1001 8.32622 26.7048 7.74403 26.7162 6.96777C26.7162 6.19152 26.123 5.58649 25.3129 5.56366C25.0277 5.56366 24.7425 5.55225 24.4572 5.55225C23.9324 5.55225 23.419 5.56366 22.8942 5.57508C21.8902 5.60932 20.9547 5.92896 20.099 6.55681C18.4105 7.78969 17.6232 9.4906 17.7716 11.6139V11.6596V12.1618C17.7716 12.4586 17.7716 12.7098 17.7716 12.9609C17.783 13.897 18.3306 14.502 19.1635 14.502C19.9963 14.502 20.5439 13.9084 20.5782 12.9723C20.5782 12.6755 20.5782 12.3901 20.5782 12.0933C20.5782 11.7623 20.5782 11.4312 20.5782 11.1116C20.6352 9.4906 21.7191 8.42896 23.3392 8.3833C23.6586 8.3833 23.9667 8.3833 24.2747 8.3833L24.2975 8.34905Z" fill="#4B8125" fill-opacity="0.35"/>
<path d="M59.0034 50.4609C58.8779 50.4609 58.7524 50.4609 58.6269 50.4609C58.3531 50.4609 58.0793 50.4609 57.8055 50.4837C57.0639 50.5408 56.5277 51.1344 56.5505 51.9107C56.5733 52.6641 57.1324 53.2349 57.8854 53.2691C58.6155 53.2919 59.3343 53.2805 60.0645 53.2691C61.3423 53.2463 62.4147 52.8581 63.3503 52.1161C64.8905 50.8947 65.6093 49.2623 65.4724 47.2531V47.2075V46.6823C65.4724 46.3741 65.4724 46.1116 65.4724 45.849C65.4495 44.9358 64.9019 44.3536 64.0576 44.3193C63.259 44.3308 62.6886 44.9586 62.6771 45.8376C62.6771 46.1458 62.6771 46.4426 62.6771 46.7508C62.6771 47.0248 62.6771 47.2988 62.6771 47.5613C62.6543 49.3193 61.5933 50.4038 59.8477 50.4495C59.5739 50.4495 59.2887 50.4495 59.0149 50.4495L59.0034 50.4609Z" fill="#89B21D" fill-opacity="0.35"/>
<path d="M57.8514 5.55253C57.0984 5.59819 56.5508 6.18039 56.5508 6.93381C56.5508 7.71007 57.1098 8.29226 57.897 8.3265C58.2735 8.33792 58.6614 8.33792 59.0379 8.33792C59.1749 8.33792 59.3004 8.33792 59.4373 8.33792C59.5628 8.33792 59.6768 8.33792 59.8023 8.33792C61.5365 8.36075 62.6432 9.45664 62.666 11.1918C62.666 11.4544 62.666 11.7169 62.666 11.9909C62.666 12.4018 62.666 12.8128 62.6888 13.2238C62.7345 13.8744 63.2593 14.3996 63.9096 14.4566C64.5485 14.5137 65.3129 14.1598 65.3814 13.5548C65.5411 12.0137 65.7236 10.2786 64.9706 8.74888C63.8525 6.47719 61.9929 5.42696 59.3004 5.55253H59.2661H58.7984C58.4789 5.55253 58.1595 5.55253 57.8514 5.55253Z" fill="#89B21D" fill-opacity="0.35"/>
<path d="M32.0438 6.96765C32.0552 7.72108 32.6599 8.31468 33.4357 8.34893C33.9149 8.37176 34.3941 8.36035 34.8732 8.34893H36.2081C36.6873 8.34893 37.155 8.34893 37.6342 8.33752C38.3644 8.30327 38.9577 7.69825 38.9691 6.96765C38.9919 6.22564 38.3872 5.58637 37.6456 5.56354C36.9383 5.54071 36.2309 5.5293 35.5007 5.5293C34.7706 5.5293 34.086 5.5293 33.3672 5.56354C32.6257 5.58637 32.021 6.21423 32.0324 6.96765H32.0438Z" fill="#89B21D" fill-opacity="0.35"/>
<path d="M44.2975 6.93359C44.2975 7.68702 44.8794 8.30345 45.6438 8.3377C46.123 8.36053 46.5908 8.34912 47.0699 8.3377H48.4162C48.9068 8.3377 49.3974 8.3377 49.888 8.32629C50.6181 8.29204 51.2 7.68702 51.2 6.94501C51.2 6.203 50.6295 5.57514 49.9222 5.55231C49.2034 5.52948 48.4618 5.51807 47.7202 5.51807C47.0243 5.51807 46.3055 5.51807 45.5868 5.55231C44.868 5.57514 44.2975 6.18017 44.2861 6.92218L44.2975 6.93359Z" fill="#89B21D" fill-opacity="0.35"/>
<path d="M20.5782 21.2487C20.544 20.4268 19.9507 19.8218 19.1749 19.8218C18.3762 19.8218 17.7944 20.4496 17.783 21.3058C17.7716 22.63 17.7716 23.9542 17.783 25.267C17.783 26.1003 18.3534 26.7053 19.1406 26.7282C19.905 26.7396 20.544 26.146 20.5782 25.3012C20.601 24.8446 20.5896 24.3766 20.5782 23.92V23.2693V22.6072C20.5782 22.1505 20.5782 21.6939 20.5782 21.2487Z" fill="#89B21D" fill-opacity="0.35"/>
<path d="M62.6772 25.4041C62.7115 26.1461 63.2933 26.7169 64.0463 26.7397C64.8107 26.7397 65.4382 26.169 65.461 25.427C65.5067 24.0343 65.5067 22.5959 65.461 21.1461C65.4382 20.4041 64.8107 19.8105 64.0577 19.8219C63.3047 19.8219 62.7115 20.427 62.6772 21.2032C62.6544 21.6941 62.6658 22.185 62.6772 22.6758V23.3037V23.9886C62.6772 24.4566 62.6772 24.9247 62.6772 25.3927V25.4041Z" fill="#89B21D" fill-opacity="0.35"/>
<path d="M65.4611 33.4977C65.4268 32.6872 64.8336 32.0708 64.0692 32.0708C63.2934 32.0708 62.6887 32.6872 62.6773 33.4863C62.6545 34.8448 62.6545 36.2146 62.6773 37.5731C62.6887 38.3722 63.3048 38.9886 64.0692 38.9886C64.8336 38.9886 65.4382 38.3722 65.4611 37.5617C65.4725 37.0936 65.4725 36.637 65.4611 36.169V35.5297V34.8904C65.4611 34.4224 65.4611 33.9658 65.4611 33.4977Z" fill="#89B21D" fill-opacity="0.35"/>
<path d="M45.6095 50.484C44.868 50.5068 44.2747 51.1461 44.2975 51.8995C44.3203 52.6643 44.9022 53.2465 45.6894 53.2693C46.1572 53.2808 46.625 53.2808 47.0927 53.2693H47.7202H48.3819C48.8611 53.2693 49.3403 53.2693 49.8081 53.2693C50.5839 53.2465 51.1771 52.6529 51.1886 51.8881C51.1886 51.1232 50.6181 50.5068 49.8651 50.484C48.4276 50.4383 46.99 50.4383 45.5981 50.484H45.6095Z" fill="#89B21D" fill-opacity="0.35"/>
</g>
<path d="M49.7011 15.9155C49.7011 14.7625 49.1991 14.2717 48.024 14.2603C44.1335 14.2603 40.2316 14.2603 36.3411 14.2603C36.113 14.2603 35.862 14.2603 35.6566 14.3287C35.0177 14.5114 34.5841 15.1507 34.6526 15.7785C34.7325 16.5319 35.2687 17.0456 35.9875 17.0571C37.174 17.0913 38.3605 17.0799 39.5471 17.0799H41.0188H44.1107L43.757 18.1758L43.6087 18.347C38.2807 23.6781 32.9527 29.0319 27.6132 34.363C27.3736 34.6027 26.9971 34.7511 26.6549 34.7511C24.51 34.7283 22.3651 34.7055 20.2202 34.6712L18.0183 34.6484H17.0713V32.9589C17.0713 32.0913 17.0713 31.2351 17.0713 30.3904C17.0713 30.0708 17.0485 29.694 16.9572 29.4201C16.7519 28.8379 16.1015 28.4498 15.4855 28.5525C14.7553 28.6781 14.2875 29.2146 14.2761 29.9109C14.2647 30.8356 14.2647 31.7717 14.2761 32.7306V34.6484H10.5796C9.90645 34.6484 9.23331 34.6484 8.56018 34.6484C7.65887 34.6484 6.74615 34.6484 5.83343 34.6484C3.3919 34.6712 2 36.0639 2 38.4726C2 45.0593 2 51.6347 2 58.21C2 60.6187 3.3919 61.9886 5.7992 62C12.348 62 18.9082 62 25.4569 62C27.9327 62 29.3018 60.6187 29.3018 58.1073V51.1324C29.3018 50.9612 29.3132 50.7899 29.3246 50.6073L29.3702 49.7511H31.2185C32.154 49.7511 33.0782 49.7511 33.9909 49.7511C34.7895 49.7397 35.417 49.1233 35.4056 48.3584C35.4056 47.5936 34.8237 47.0114 34.0251 46.9657C33.7056 46.9429 33.3976 46.9543 33.0782 46.9543H32.6674H29.2904V44.3059C29.2904 42.5479 29.2904 40.8356 29.2904 39.1233V38.9749C29.2904 38.5525 29.2904 38.1529 29.2219 37.7762C29.1192 37.1598 29.2789 36.6803 29.7239 36.2351C33.5801 32.3881 37.4364 28.5297 41.2926 24.6826L45.2288 20.7443C45.3314 20.6415 45.4455 20.5502 45.5824 20.4246L46.8488 19.3059V23.5297C46.8488 24.9566 46.8488 26.395 46.8488 27.8219C46.8488 28.5982 47.2253 29.1461 47.8756 29.3173C48.3092 29.4315 48.7427 29.363 49.0736 29.1004C49.4387 28.8265 49.644 28.3698 49.644 27.8447C49.6554 23.8835 49.644 19.9109 49.644 15.9498L49.7011 15.9155ZM26.4609 59.1461H4.85225V37.5365H26.4609V59.1461Z" fill="#4B8125"/>
<path d="M20.7682 4.81975C21.0877 4.81975 21.4185 4.81975 21.7494 4.81975C22.5708 4.79692 23.1755 4.21473 23.1869 3.43847C23.1869 2.66222 22.5937 2.0572 21.7836 2.03436C21.4984 2.03436 21.2132 2.02295 20.9279 2.02295C20.4031 2.02295 19.8897 2.03436 19.3649 2.04578C18.3609 2.08003 17.4254 2.39966 16.5697 3.02752C14.8812 4.26039 14.0939 5.96131 14.2423 8.08459V8.13025V8.63254C14.2423 8.92934 14.2423 9.18048 14.2423 9.43162C14.2537 10.3677 14.8013 10.9727 15.6342 10.9727C16.467 10.9727 17.0147 10.3791 17.0489 9.44304C17.0489 9.14624 17.0489 8.86085 17.0489 8.56404C17.0489 8.23299 17.0489 7.90194 17.0489 7.58231C17.1059 5.96131 18.1898 4.89966 19.8099 4.854C20.1293 4.854 20.4374 4.854 20.7454 4.854L20.7682 4.81975Z" fill="#4B8125"/>
<path d="M55.4741 46.9316C55.3486 46.9316 55.2231 46.9316 55.0976 46.9316C54.8238 46.9316 54.55 46.9316 54.2762 46.9544C53.5346 47.0115 52.9984 47.6051 53.0212 48.3814C53.044 49.1348 53.6031 49.7056 54.3561 49.7398C55.0862 49.7626 55.805 49.7512 56.5352 49.7398C57.813 49.717 58.8854 49.3289 59.821 48.5868C61.3612 47.3654 62.08 45.733 61.9431 43.7238V43.6782V43.1531C61.9431 42.8448 61.9431 42.5823 61.9431 42.3197C61.9202 41.4065 61.3726 40.8243 60.5283 40.79C59.7297 40.8015 59.1593 41.4293 59.1478 42.3083C59.1478 42.6165 59.1478 42.9133 59.1478 43.2215C59.1478 43.4955 59.1478 43.7695 59.1478 44.032C59.125 45.79 58.064 46.8745 56.3184 46.9202C56.0446 46.9202 55.7594 46.9202 55.4856 46.9202L55.4741 46.9316Z" fill="#4B8125"/>
<path d="M54.3221 2.02323C53.5691 2.0689 53.0215 2.65109 53.0215 3.40451C53.0215 4.18077 53.5805 4.76296 54.3677 4.79721C54.7442 4.80862 55.1322 4.80862 55.5086 4.80862C55.6456 4.80862 55.7711 4.80862 55.908 4.80862C56.0335 4.80862 56.1476 4.80862 56.2731 4.80862C58.0072 4.83145 59.1139 5.92734 59.1367 7.6625C59.1367 7.92506 59.1367 8.18762 59.1367 8.46159C59.1367 8.87255 59.1367 9.28351 59.1595 9.69447C59.2052 10.3452 59.73 10.8703 60.3803 10.9273C61.0192 10.9844 61.7836 10.6305 61.8521 10.0255C62.0118 8.48442 62.1943 6.74926 61.4413 5.21958C60.3232 2.94789 58.4636 1.89766 55.7711 2.02323H55.7368H55.2691C54.9496 2.02323 54.6302 2.02323 54.3221 2.02323Z" fill="#4B8125"/>
<path d="M28.5145 3.43836C28.5259 4.19178 29.1306 4.78539 29.9064 4.81963C30.3856 4.84247 30.8648 4.83105 31.3439 4.81963H32.6788C33.158 4.81963 33.6257 4.81963 34.1049 4.80822C34.8351 4.77397 35.4284 4.16895 35.4398 3.43836C35.4626 2.69635 34.8579 2.05708 34.1163 2.03425C33.409 2.01142 32.7016 2 31.9714 2C31.2413 2 30.5567 2 29.8379 2.03425C29.0964 2.05708 28.4917 2.68493 28.5031 3.43836H28.5145Z" fill="#4B8125"/>
<path d="M40.7682 3.40429C40.7682 4.15772 41.3501 4.77416 42.1145 4.8084C42.5937 4.83124 43.0615 4.81982 43.5406 4.8084H44.8869C45.3775 4.8084 45.8681 4.8084 46.3587 4.79699C47.0888 4.76274 47.6707 4.15772 47.6707 3.41571C47.6707 2.6737 47.1002 2.04585 46.3929 2.02302C45.6741 2.00019 44.9325 1.98877 44.1909 1.98877C43.495 1.98877 42.7762 1.98877 42.0575 2.02302C41.3387 2.04585 40.7682 2.65087 40.7568 3.39288L40.7682 3.40429Z" fill="#4B8125"/>
<path d="M17.0489 17.7194C17.0147 16.8975 16.4214 16.2925 15.6456 16.2925C14.8469 16.2925 14.2651 16.9203 14.2537 17.7765C14.2423 19.1007 14.2423 20.4249 14.2537 21.7377C14.2537 22.571 14.8241 23.176 15.6113 23.1989C16.3758 23.2103 17.0147 22.6167 17.0489 21.7719C17.0717 21.3153 17.0603 20.8473 17.0489 20.3907V19.74V19.0779C17.0489 18.6212 17.0489 18.1646 17.0489 17.7194Z" fill="#4B8125"/>
<path d="M59.1479 21.8748C59.1822 22.6168 59.764 23.1876 60.517 23.2105C61.2814 23.2105 61.9089 22.6397 61.9317 21.8977C61.9774 20.505 61.9774 19.0666 61.9317 17.6168C61.9089 16.8748 61.2814 16.2812 60.5284 16.2926C59.7754 16.2926 59.1822 16.8977 59.1479 17.6739C59.1251 18.1648 59.1365 18.6557 59.1479 19.1465V19.7744V20.4593C59.1479 20.9273 59.1479 21.3954 59.1479 21.8634V21.8748Z" fill="#4B8125"/>
<path d="M61.9318 29.9684C61.8975 29.1579 61.3043 28.5415 60.5399 28.5415C59.7641 28.5415 59.1594 29.1579 59.148 29.957C59.1252 31.3155 59.1252 32.6853 59.148 34.0438C59.1594 34.8429 59.7755 35.4593 60.5399 35.4593C61.3043 35.4593 61.909 34.8429 61.9318 34.0324C61.9432 33.5643 61.9432 33.1077 61.9318 32.6397V32.0004V31.3611C61.9318 30.8931 61.9318 30.4365 61.9318 29.9684Z" fill="#4B8125"/>
<path d="M42.0803 46.9547C41.3387 46.9775 40.7454 47.6168 40.7682 48.3702C40.791 49.135 41.3729 49.7172 42.1601 49.74C42.6279 49.7515 43.0957 49.7515 43.5634 49.74H44.1909H44.8526C45.3318 49.74 45.811 49.74 46.2788 49.74C47.0546 49.7172 47.6479 49.1236 47.6593 48.3588C47.6593 47.5939 47.0888 46.9775 46.3358 46.9547C44.8983 46.909 43.4607 46.909 42.0688 46.9547H42.0803Z" fill="#4B8125"/>
<defs>
<filter id="filter0_f_1910_13771" x="0.529297" y="0.518066" width="69.9941" height="70.0112" filterUnits="userSpaceOnUse" color-interpolation-filters="sRGB">
<feFlood flood-opacity="0" result="BackgroundImageFix"/>
<feBlend mode="normal" in="SourceGraphic" in2="BackgroundImageFix" result="shape"/>
<feGaussianBlur stdDeviation="2.5" result="effect1_foregroundBlur_1910_13771"/>
</filter>
</defs>
</svg>

<svg width="71" height="71" viewBox="0 0 71 71" fill="none" xmlns="http://www.w3.org/2000/svg"><g filter="url(#filter0_f_1910_13771)" fill-opacity=".35"><path d="M53.23 19.445c0-1.153-.502-1.644-1.677-1.655H39.87c-.228 0-.479 0-.684.068-.639.183-1.073.822-1.004 1.45.08.753.616 1.267 1.335 1.278 1.186.035 2.373.023 3.56.023h4.563l-.354 1.096-.148.171c-5.328 5.331-10.656 10.685-15.995 16.016-.24.24-.617.388-.959.388-2.145-.022-4.29-.045-6.434-.08l-2.202-.022H20.6V33.92c0-.32-.023-.697-.114-.97a1.368 1.368 0 00-1.472-.868c-.73.125-1.198.662-1.21 1.358-.011.925-.011 1.861 0 2.82v1.918H9.363c-2.442.023-3.834 1.415-3.834 3.824v19.737c0 2.409 1.392 3.779 3.8 3.79h19.657c2.476 0 3.845-1.381 3.845-3.892v-6.975c0-.172.011-.343.023-.525l.046-.857h4.62c.799-.011 1.426-.627 1.415-1.392 0-.765-.582-1.347-1.38-1.393-.32-.023-.628-.011-.948-.011H32.82v-7.98c0-.422 0-.822-.069-1.198-.102-.617.057-1.096.502-1.542 3.856-3.847 7.713-7.705 11.569-11.552l3.936-3.938c.103-.103.217-.195.354-.32l1.266-1.119v8.516c0 .776.377 1.324 1.027 1.496.434.114.867.045 1.198-.217.365-.274.57-.73.57-1.256.012-3.961 0-7.934 0-11.895l.057-.034zm-23.24 43.23H8.382v-21.61H29.99v21.61zM24.297 8.35h.982c.821-.024 1.426-.606 1.437-1.382 0-.776-.593-1.382-1.403-1.404-.285 0-.57-.012-.856-.012-.525 0-1.038.012-1.563.023a4.916 4.916 0 00-2.795.982c-1.689 1.233-2.476 2.934-2.327 5.057v1.347c.011.936.559 1.541 1.392 1.541.832 0 1.38-.594 1.414-1.53v-1.86c.057-1.621 1.141-2.683 2.761-2.729h.936l.023-.034z" fill="#4B8125"/><path d="M59.003 50.46h-.376c-.274 0-.548 0-.822.024-.741.057-1.277.65-1.255 1.427a1.372 1.372 0 001.335 1.358c.73.023 1.45.012 2.18 0 1.277-.023 2.35-.41 3.285-1.153 1.54-1.221 2.26-2.854 2.122-4.863v-1.404c-.022-.913-.57-1.495-1.414-1.53-.799.012-1.37.64-1.38 1.519v1.723c-.024 1.758-1.085 2.843-2.83 2.889h-.833l-.012.01zM57.851 5.553c-.753.045-1.3.627-1.3 1.38 0 .777.559 1.36 1.346 1.393.377.012.764.012 1.14.012h.765c1.734.023 2.841 1.119 2.864 2.854v.799c0 .41 0 .822.023 1.233.045.65.57 1.176 1.22 1.233.64.057 1.404-.297 1.472-.902.16-1.541.343-3.276-.41-4.806-1.119-2.272-2.978-3.322-5.67-3.196h-1.45zM32.044 6.968c.011.753.616 1.347 1.392 1.38.479.024.958.012 1.437 0h1.335c.48 0 .947 0 1.426-.01a1.406 1.406 0 001.335-1.37 1.38 1.38 0 00-1.323-1.404 66.139 66.139 0 00-2.145-.035c-.73 0-1.415 0-2.134.035a1.39 1.39 0 00-1.335 1.404h.012zm12.253-.034c0 .753.582 1.37 1.347 1.404.479.023.947.011 1.426 0h1.346c.49 0 .981 0 1.472-.012A1.38 1.38 0 0051.2 6.945c0-.742-.57-1.37-1.278-1.393a69.739 69.739 0 00-2.202-.034c-.696 0-1.414 0-2.133.034-.719.023-1.29.628-1.3 1.37l.01.012zM20.578 21.249c-.034-.822-.627-1.427-1.403-1.427-.799 0-1.38.628-1.392 1.484a229.405 229.405 0 000 3.961c0 .833.57 1.438 1.358 1.461.764.012 1.403-.582 1.437-1.427a18.6 18.6 0 000-1.381v-2.67zm42.099 4.155a1.39 1.39 0 001.37 1.336c.764 0 1.391-.571 1.414-1.313a66.845 66.845 0 000-4.28 1.38 1.38 0 00-1.403-1.325c-.753 0-1.347.605-1.38 1.381-.024.491-.012.982 0 1.473v2.728zm2.784 8.094c-.034-.81-.627-1.427-1.392-1.427-.776 0-1.38.616-1.392 1.415a122.099 122.099 0 000 4.087c.012.8.628 1.416 1.392 1.416.765 0 1.37-.617 1.392-1.427.011-.468.011-.925 0-1.393v-2.671zM45.61 50.484c-.742.023-1.335.662-1.313 1.416.023.764.605 1.346 1.392 1.37.468.01.936.01 1.404 0h2.715c.776-.024 1.37-.617 1.38-1.382 0-.765-.57-1.381-1.323-1.404a66.414 66.414 0 00-4.267 0h.011z" fill="#89B21D"/></g><path d="M49.701 15.915c0-1.152-.502-1.643-1.677-1.655H36.341c-.228 0-.479 0-.684.069-.64.182-1.073.822-1.004 1.45.08.753.616 1.267 1.334 1.278 1.187.034 2.373.023 3.56.023h4.564l-.354 1.096-.148.171c-5.328 5.331-10.656 10.685-15.996 16.016-.24.24-.616.388-.958.388-2.145-.023-4.29-.045-6.435-.08l-2.202-.023h-.947V30.39c0-.32-.023-.696-.114-.97a1.368 1.368 0 00-1.472-.868c-.73.126-1.197.663-1.209 1.359-.011.925-.011 1.86 0 2.82v1.917H5.833C3.392 34.671 2 36.064 2 38.473V58.21c0 2.409 1.392 3.779 3.8 3.79h19.657c2.476 0 3.845-1.381 3.845-3.893v-6.975c0-.17.011-.342.023-.525l.045-.856h4.621c.798-.011 1.426-.628 1.415-1.393 0-.764-.582-1.347-1.38-1.392-.32-.023-.628-.012-.948-.012H29.29v-7.979c0-.422 0-.822-.068-1.199-.103-.616.057-1.096.502-1.54 3.856-3.848 7.712-7.706 11.569-11.553l3.936-3.939c.102-.102.217-.194.353-.32l1.267-1.118v8.516c0 .776.376 1.324 1.027 1.495.433.114.867.046 1.198-.217.365-.274.57-.73.57-1.255.011-3.961 0-7.934 0-11.895l.057-.034zm-23.24 43.231H4.852v-21.61h21.609v21.61zM20.768 4.82h.981c.822-.023 1.427-.605 1.438-1.382 0-.776-.593-1.38-1.403-1.404-.286 0-.57-.011-.856-.011-.525 0-1.038.011-1.563.023a4.916 4.916 0 00-2.795.982c-1.69 1.232-2.476 2.932-2.328 5.057v1.347c.012.936.56 1.54 1.392 1.54.833 0 1.38-.593 1.415-1.529V7.582c.057-1.62 1.14-2.682 2.76-2.728h.936l.023-.034zm34.706 42.112h-.376c-.274 0-.548 0-.822.022-.741.057-1.278.651-1.255 1.427a1.372 1.372 0 001.335 1.359c.73.023 1.449.011 2.18 0 1.277-.023 2.35-.411 3.285-1.153 1.54-1.222 2.259-2.854 2.122-4.863V42.32c-.023-.913-.57-1.496-1.415-1.53-.798.011-1.369.64-1.38 1.518v1.724c-.023 1.758-1.084 2.843-2.83 2.888h-.832l-.012.012zM54.322 2.023c-.753.046-1.3.628-1.3 1.382 0 .776.559 1.358 1.346 1.392.376.012.764.012 1.14.012h.765c1.734.022 2.84 1.118 2.864 2.853v.8c0 .41 0 .822.023 1.232.045.651.57 1.176 1.22 1.233.64.057 1.404-.296 1.472-.902.16-1.54.342-3.276-.41-4.805-1.119-2.272-2.978-3.322-5.67-3.197h-1.45zM28.515 3.438c.01.754.616 1.347 1.391 1.382.48.022.959.011 1.438 0h1.335c.479 0 .947 0 1.426-.012a1.406 1.406 0 001.335-1.37 1.38 1.38 0 00-1.324-1.404A66.138 66.138 0 0031.971 2c-.73 0-1.414 0-2.133.034a1.39 1.39 0 00-1.335 1.404h.012zm12.253-.034c0 .754.582 1.37 1.346 1.404.48.023.948.012 1.427 0h1.346c.49 0 .981 0 1.472-.011a1.38 1.38 0 001.312-1.381c0-.742-.57-1.37-1.278-1.393a69.738 69.738 0 00-2.202-.034c-.696 0-1.415 0-2.134.034-.718.023-1.289.628-1.3 1.37l.011.011zM17.049 17.72c-.034-.822-.628-1.427-1.403-1.427-.8 0-1.38.627-1.392 1.483a229.405 229.405 0 000 3.962c0 .833.57 1.438 1.357 1.46.765.012 1.404-.581 1.438-1.426a18.6 18.6 0 000-1.381v-2.672zm42.099 4.155a1.39 1.39 0 001.369 1.335c.764 0 1.392-.57 1.415-1.312a66.845 66.845 0 000-4.281 1.38 1.38 0 00-1.404-1.324c-.753 0-1.346.605-1.38 1.38-.023.492-.012.983 0 1.474v2.728zm2.784 8.093c-.035-.81-.628-1.427-1.392-1.427-.776 0-1.38.617-1.392 1.416a122.099 122.099 0 000 4.087c.011.799.627 1.415 1.392 1.415.764 0 1.369-.616 1.392-1.427.011-.468.011-.924 0-1.392v-2.673zM42.08 46.955c-.741.023-1.335.662-1.312 1.415.023.765.605 1.347 1.392 1.37.468.011.936.011 1.403 0h2.716c.776-.023 1.369-.616 1.38-1.381 0-.765-.57-1.382-1.323-1.404a66.414 66.414 0 00-4.267 0h.011z" fill="#4B8125"/><defs><filter id="filter0_f_1910_13771" x=".529" y=".518" width="69.994" height="70.011" filterUnits="userSpaceOnUse" color-interpolation-filters="sRGB"><feFlood flood-opacity="0" result="BackgroundImageFix"/><feBlend in="SourceGraphic" in2="BackgroundImageFix" result="shape"/><feGaussianBlur stdDeviation="2.5" result="effect1_foregroundBlur_1910_13771"/></filter></defs></svg>
